public/images/icon-perplexity.svg

<svg xmlns="http://www.w3.org/2000/svg" xmlns:xlink="http://www.w3.org/1999/xlink" viewBox="0,0,256,256" width="48px" height="48px"><defs><linearGradient x1="10.586" y1="1.61" x2="36.054" y2="44.121" gradientUnits="userSpaceOnUse" id="color-1"><stop offset="0.002" stop-color="#20808d"></stop><stop offset="0.003" stop-color="#20808d"></stop><stop offset="0.373" stop-color="#20808d"></stop><stop offset="1" stop-color="#20808d"></stop></linearGradient></defs><g fill="url(#color-1)" fill-rule="evenodd" stroke="none" stroke-width="1" stroke-linecap="butt" stroke-linejoin="miter" stroke-miterlimit="10" stroke-dasharray="" stroke-dashoffset="0" font-family="none" font-weight="none" font-size="none" text-anchor="none" style="mix-blend-mode: normal"><g transform="scale(5.33333,5.33333)"><path d="M11.469,4l11.39,10.494v-0.002v-10.468h2.217v10.517l11.442,-10.541v11.965h4.697v17.258h-4.683v10.654l-11.455,-10.064v10.18h-2.217v-10.014l-11.378,10.021v-10.776h-4.697v-17.259h4.685v-11.965zM21.188,18.155h-12.186v12.878h2.477v-4.062zM13.699,27.943v11.17l9.16,-8.068v-11.422zM25.141,30.938v-11.326l9.163,8.321v5.291h0.012v5.775zM36.532,31.033h2.466v-12.878h-12.095l9.629,8.725zM34.301,15.965v-6.927l-7.519,6.927zM21.205,15.965h-7.519v-6.927z"></path></g></g></svg>

<svg xmlns="http://www.w3.org/2000/svg"  viewBox="0 0 48 48" width="48px" height="48px" clip-rule="evenodd"><linearGradient id="f1cRcgrFgpE5Wk07TriTIa" x1="10.586" x2="36.054" y1="1.61" y2="44.121" gradientUnits="userSpaceOnUse"><stop offset=".002" stop-color="#9c55d4"/><stop offset=".003" stop-color="#20808d"/><stop offset=".373" stop-color="#218f9b"/><stop offset="1" stop-color="#22b1bc"/></linearGradient><path fill="url(#f1cRcgrFgpE5Wk07TriTIa)" fill-rule="evenodd" d="M11.469,4l11.39,10.494v-0.002V4.024h2.217v10.517	L36.518,4v11.965h4.697v17.258h-4.683v10.654L25.077,33.813v10.18h-2.217V33.979L11.482,44V33.224H6.785V15.965h4.685V4z M21.188,18.155H9.002v12.878h2.477v-4.062L21.188,18.155z M13.699,27.943v11.17l9.16-8.068V19.623L13.699,27.943z M25.141,30.938	V19.612l9.163,8.321v5.291h0.012v5.775L25.141,30.938z M36.532,31.033h2.466V18.155H26.903l9.629,8.725V31.033z M34.301,15.965	V9.038l-7.519,6.927H34.301z M21.205,15.965h-7.519V9.038L21.205,15.965z" clip-rule="evenodd"/></svg>
